projects/samara/images/icons/popup-wp.svg

<svg width="33" height="33" viewBox="0 0 33 33" fill="none" xmlns="http://www.w3.org/2000/svg">
<path d="M16.5 0C25.613 0 33 7.38705 33 16.5C33 25.6129 25.613 33 16.5 33C13.5841 33.0047 10.7195 32.233 8.20052 30.7642L0.00662321 33L2.23742 24.8028C0.767426 22.283 -0.00484832 19.4172 2.29024e-05 16.5C2.29024e-05 7.38705 7.38707 0 16.5 0ZM10.8768 8.74499L10.5468 8.75819C10.3332 8.7712 10.1244 8.82733 9.93302 8.92319C9.75403 9.02455 9.59064 9.15126 9.44792 9.29939C9.24992 9.48584 9.13772 9.64754 9.01727 9.80429C8.40697 10.5978 8.07837 11.572 8.08337 12.573C8.08667 13.3815 8.29787 14.1685 8.62787 14.9044C9.30272 16.3927 10.4132 17.9685 11.8784 19.4287C12.2315 19.7802 12.578 20.1333 12.9509 20.4616C14.7715 22.0646 16.941 23.2205 19.2869 23.8375L20.2241 23.9811C20.5293 23.9976 20.8346 23.9745 21.1415 23.9596C21.622 23.9348 22.0912 23.8047 22.5159 23.5785C22.732 23.4672 22.9429 23.3461 23.1479 23.2155C23.1479 23.2155 23.2188 23.1693 23.3541 23.067C23.5769 22.902 23.7138 22.7848 23.8986 22.5918C24.0356 22.4499 24.1544 22.2832 24.2451 22.0935C24.3738 21.8245 24.5025 21.3114 24.5553 20.884C24.5949 20.5573 24.5834 20.3791 24.5784 20.2686C24.5718 20.092 24.425 19.9089 24.2649 19.8313L23.3046 19.4007C23.3046 19.4007 21.8691 18.7753 20.9913 18.376C20.8995 18.3359 20.801 18.313 20.7009 18.3084C20.588 18.2968 20.4739 18.3095 20.3664 18.3456C20.2588 18.3818 20.1602 18.4405 20.0772 18.5179C20.069 18.5146 19.9584 18.6087 18.7655 20.0541C18.697 20.1461 18.6027 20.2156 18.4945 20.2538C18.3864 20.292 18.2693 20.2972 18.1583 20.2686C18.0508 20.2398 17.9455 20.2034 17.8431 20.1597C17.6385 20.0739 17.5676 20.0409 17.4273 19.9815C16.4803 19.5682 15.6035 19.0099 14.8286 18.3265C14.6207 18.145 14.4276 17.947 14.2296 17.7556C13.5805 17.134 13.0148 16.4307 12.5466 15.6634L12.4493 15.5067C12.3793 15.4014 12.3228 15.2877 12.281 15.1684C12.2183 14.9259 12.3816 14.7312 12.3816 14.7312C12.3816 14.7312 12.7826 14.2923 12.969 14.0547C13.1505 13.8237 13.304 13.5993 13.403 13.4392C13.5977 13.1257 13.6587 12.804 13.5564 12.5548C13.0944 11.4262 12.6159 10.3026 12.1242 9.18719C12.0269 8.96609 11.7381 8.80769 11.4758 8.77634C11.3867 8.76644 11.2976 8.75654 11.2085 8.74994C10.9869 8.73894 10.7648 8.74114 10.5435 8.75654L10.8752 8.74334L10.8768 8.74499Z" fill="#42D262"/>
</svg>

<svg width="33" height="33" fill="none" xmlns="http://www.w3.org/2000/svg"><path d="M16.5 0C25.613 0 33 7.387 33 16.5S25.613 33 16.5 33a16.424 16.424 0 01-8.3-2.236L.008 33l2.23-8.197A16.423 16.423 0 010 16.5C0 7.387 7.387 0 16.5 0zm-5.623 8.745l-.33.013c-.214.013-.423.07-.614.165a2.134 2.134 0 00-.485.376c-.198.187-.31.349-.43.505a4.505 4.505 0 00-.935 2.769c.004.809.215 1.595.545 2.331.675 1.489 1.785 3.064 3.25 4.525.354.351.7.704 1.073 1.033a15.588 15.588 0 006.336 3.375l.937.144c.305.017.61-.007.918-.021.48-.025.95-.155 1.374-.382a7.48 7.48 0 00.632-.363s.07-.046.206-.148a3.79 3.79 0 00.545-.475 1.91 1.91 0 00.346-.498c.129-.27.258-.783.31-1.21.04-.327.028-.505.023-.615-.006-.177-.153-.36-.313-.438l-.96-.43s-1.436-.626-2.314-1.025a.82.82 0 00-.29-.068.796.796 0 00-.624.21c-.008-.003-.119.09-1.312 1.536a.577.577 0 01-.607.215 2.357 2.357 0 01-.315-.11c-.204-.085-.275-.118-.416-.177a9.94 9.94 0 01-2.598-1.655c-.208-.182-.401-.38-.6-.571a10.39 10.39 0 01-1.682-2.093l-.098-.156a1.517 1.517 0 01-.168-.339c-.063-.242.1-.437.1-.437s.402-.439.588-.676c.181-.231.335-.456.434-.616.195-.313.256-.635.153-.884-.462-1.129-.94-2.252-1.432-3.368-.097-.22-.386-.38-.648-.41-.09-.01-.178-.02-.268-.027a5.589 5.589 0 00-.665.007l.332-.014.002.002z" fill="#42D262"/></svg>
